X:1
T:Crispus, 77.77 D
T:Crispus, 77.77 D
T:William James Kirkpatrick, 1897
T:Public Domain Courtesy of the Cyber Hymnal™
C:William James Kirkpatrick, 1897
Z:Public Domain
Z:Courtesy of the Cyber Hymnal™
%%score ( 1 2 ) ( 3 4 )
L:1/8
Q:1/4=95
M:4/4
K:C
V:1 treble 
V:2 treble 
V:3 bass 
V:4 bass 
V:1
 [CE]>[DF] | [EG]4- [EG]>[EG] [FA]>[FB] | [Ec]6 [GB]>[FA] | [EG]4- [EG]>[FA] [EG]>[CE] | %4
 [B,D]6 [CE]>[DF] | [EG]4- [EG]>[EG] [FA]>[FB] | [Ec]6 [Gd]>[Ge] x8 | [Gd]4- [Gd]>G [^FB]>[FA] | %8
 G6 G>G | G2 [^FA]2 [=FB]2 [Ec]2 | [Fd]6 [FA]>[FG] | [EG]2 [Ec]2 [Gc]2 [Gd]2 [Ge]6 [Af]>[Ge] | %12
 [Fd]4- [Fd]>[Af] [Ge]>[Fd] | [Ec]6 [GB]>[FA] | [EG]2 [Ec]2 [Ge]2 [Fd]2 | [Ec]6 |] %16
V:2
 x2 | x8 | x8 | x8 | x8 | x8 | x16 | x11/2 G/ x2 | (D2 E2 D2) G>G | G2 x6 | x8 | x16 | x8 | x8 | %14
 x8 | x6 |] %16
V:3
 z2 | z2 [C,C]>[C,C] [C,C]2 [C,C]2 | ([C,G,]2 [C,G,]2 [C,G,]2) z2 | z2 [C,C]>[C,C] [C,C]2 [C,G,]2 | %4
 ([G,,G,]2 G,2) G,2 z2 | z2 [C,C]>[C,C] [C,C]2 [C,C]2 | %6
 ([C,G,]2 [C,G,]2 [C,G,]2) [B,,G,]>[C,C] [D,B,]2 [D,B,]2 [D,B,]2 [D,D]2 | %7
 (B,2 C2 B,2) [G,B,]>[G,B,] | [G,B,]2 [G,C]2 [G,D]2 [G,C]2 | [G,B,]6 [G,B,]>[G,B,] | %10
 [C,C]2 [C,G,]2 [E,C]2 [F,A,]2 | C6 z2 x8 | z2 [G,B,]>[G,B,] [G,B,]3/2 z/ z2 | %13
 z3/2 ([C,G,]/ [E,G,]3/2 G,/) [C,G,]2 [E,C]>[F,C] | [G,C]2 [G,C]2 [G,C]2 [G,B,]2 | [C,G,C]6 |] %16
V:4
 x2 | x8 | x8 | x8 | x2 (G,2 G,2) x2 | x8 | x16 | G,,6 x2 | x8 | x8 | x8 | C6 x10 | x8 | %13
 x7/2 G,/ x4 | x8 | x6 |] %16

